svg/fluentui-system-icons/ic_fluent_mic_20_regular.svg

<svg width="20" height="20" viewBox="0 0 20 20" fill="none" xmlns="http://www.w3.org/2000/svg">
<path d="M10 13C11.6569 13 13 11.6568 13 9.99998V5C13 3.34315 11.6569 2 10 2C8.34315 2 7 3.34315 7 5V9.99998C7 11.6568 8.34315 13 10 13ZM10 12C8.89543 12 8 11.1046 8 9.99998V5C8 3.89543 8.89543 3 10 3C11.1046 3 12 3.89543 12 5V9.99998C12 11.1046 11.1046 12 10 12ZM5 9.49998C5.27614 9.49998 5.5 9.72384 5.5 9.99998C5.5 12.4853 7.51472 14.5 10 14.5C12.4853 14.5 14.5 12.4853 14.5 9.99998C14.5 9.72384 14.7239 9.49998 15 9.49998C15.2761 9.49998 15.5 9.72384 15.5 9.99998C15.5 12.869 13.3033 15.2249 10.5 15.4776V17.5C10.5 17.7761 10.2761 18 10 18C9.72386 18 9.5 17.7761 9.5 17.5V15.4776C6.69675 15.2249 4.5 12.869 4.5 9.99998C4.5 9.72384 4.72386 9.49998 5 9.49998Z" fill="#212121"/>
</svg>

<svg xmlns="http://www.w3.org/2000/svg" width="20" height="20"><path d="M10 13a3 3 0 0 0 3-3V5a3 3 0 1 0-6 0v5a3 3 0 0 0 3 3Zm0-1a2 2 0 0 1-2-2V5a2 2 0 1 1 4 0v5a2 2 0 0 1-2 2ZM5 9.5a.5.5 0 0 1 .5.5 4.5 4.5 0 1 0 9 0 .5.5 0 0 1 1 0 5.5 5.5 0 0 1-5 5.478V17.5a.5.5 0 0 1-1 0v-2.022A5.5 5.5 0 0 1 4.5 10a.5.5 0 0 1 .5-.5Z"/></svg>
